src/card_system/max/mir.svg

<svg viewBox="0 0 84 40" fill="none" xmlns="http://www.w3.org/2000/svg">
<path fill-rule="evenodd" clip-rule="evenodd" d="M15.2881 10.4563C15.8957 10.4527 17.7011 10.29 18.4659 12.8711C18.981 14.6097 19.8016 17.4577 20.9277 21.415H21.3863C22.5939 17.2429 23.4234 14.395 23.8749 12.8711C24.6477 10.2632 26.5795 10.4563 27.3522 10.4563L33.3139 10.4563V29.0017H27.2376V18.0726H26.8301L23.4428 29.0017H18.8711L15.4838 18.0645H15.0764V29.0017H9V10.4563L15.2881 10.4563ZM42.0395 10.4563V21.3936H42.5242L46.6446 12.4C47.4444 10.6102 49.1491 10.4563 49.1491 10.4563H55.0292V29.0017H48.8259V18.0645H48.3412L44.3016 27.0581C43.5018 28.8397 41.7163 29.0017 41.7163 29.0017H35.8362V10.4563H42.0395ZM76.4705 19.2692C75.6052 21.7213 72.8878 23.4773 69.8793 23.4773H63.374V29.0017H57.475V19.2692H76.4705Z" fill="#0F754E"/>
<path fill-rule="evenodd" clip-rule="evenodd" d="M70.1642 10.457H57.166C57.4754 14.5859 61.031 18.1204 64.7118 18.1204H76.8807C77.5829 14.6889 75.1655 10.457 70.1642 10.457Z" fill="url(#paint0_linear)"/>
<defs>
<linearGradient id="paint0_linear" x1="77" y1="15.2776" x2="57.166" y2="15.2776" gradientUnits="userSpaceOnUse">
<stop stop-color="#1F5CD7"/>
<stop offset="1" stop-color="#02AEFF"/>
</linearGradient>
</defs>
</svg>

<svg xmlns="http://www.w3.org/2000/svg" viewBox="0 0 84 40"><defs><style>.cls-1{fill:#0f754e;}.cls-1,.cls-2{fill-rule:evenodd;}.cls-2{fill:#05a8fc;}</style></defs><path class="cls-1" d="M15.29,10.46c.61,0,2.41-.17,3.18,2.41q.77,2.61,2.46,8.55h.46q1.8-6.27,2.48-8.55a3,3,0,0,1,3.48-2.41h6V29H27.24V18.07h-.41L23.44,29H18.87L15.48,18.07h-.4V29H9V10.46Zm26.75,0V21.39h.48l4.12-9a3.25,3.25,0,0,1,2.51-1.94H55V29h-6.2V18.07h-.49l-4,9A3.34,3.34,0,0,1,41.72,29H35.84V10.46Zm34.43,8.81a6.92,6.92,0,0,1-6.59,4.21H63.37V29h-5.9V19.27Z"/><path class="cls-2" d="M70.16,10.46h-13c.31,4.13,3.86,7.66,7.54,7.66H76.88A6.48,6.48,0,0,0,70.16,10.46Z"/></svg>
